X:4068
T:Matt Hayes' Jig
O:england
R:Jig
C:Trad
M:6/8
L:1/8
K:E
L:1/8
EGB e2f|edB A3|BGE =d2e|fe=d cec|
EGB e2f|edB A3|Bec dBA|1 FED EBG:|2 FED EGB|
e2f gfe|d2B B2c|=d2e fed|cec ABA|
GBe gfe|d2B FGA|Bec dBA|1 FED EGB:|2 FED EBG|
E||
